static/img/kroki/8d0aeea302d1dd29aaa0eea58e0598a8.svg

<?xml version="1.0" encoding="us-ascii" standalone="no"?><svg xmlns="http://www.w3.org/2000/svg" xmlns:xlink="http://www.w3.org/1999/xlink" contentStyleType="text/css" height="352px" preserveAspectRatio="none" style="width:522px;height:352px;" version="1.1" viewBox="0 0 522 352" width="522px" zoomAndPan="magnify"><defs/><g><!--class aws_ec2_instance--><g id="elem_aws_ec2_instance"><rect codeLine="22" fill="#3D176E" height="39.7891" id="aws_ec2_instance" rx="2.5" ry="2.5" style="stroke:#000D19;stroke-width:0.5;" width="192" x="7" y="306.37"/><ellipse cx="22" cy="326.2645" fill="#ADD1B2" rx="11" ry="11" style="stroke:#181818;stroke-width:1.0;"/><path d="M24.9688,331.9052 Q24.3906,332.202 23.75,332.3427 Q23.1094,332.4989 22.4063,332.4989 Q19.9063,332.4989 18.5781,330.8583 Q17.2656,329.202 17.2656,326.077 Q17.2656,322.952 18.5781,321.2958 Q19.9063,319.6395 22.4063,319.6395 Q23.1094,319.6395 23.75,319.7958 Q24.4063,319.952 24.9688,320.2489 L24.9688,322.9677 Q24.3438,322.3895 23.75,322.1239 Q23.1563,321.8427 22.5313,321.8427 Q21.1875,321.8427 20.5,322.9208 Q19.8125,323.9833 19.8125,326.077 Q19.8125,328.1708 20.5,329.2489 Q21.1875,330.3114 22.5313,330.3114 Q23.1563,330.3114 23.75,330.0458 Q24.3438,329.7645 24.9688,329.1864 L24.9688,331.9052 Z " fill="#000000"/><text fill="#D9B8FF" font-family="Helvetica" font-size="17" lengthAdjust="spacing" textLength="150" x="41" y="332.1498">aws_ec2_instance</text></g><!--class aws_ec2_instance_type--><g id="elem_aws_ec2_instance_type"><rect codeLine="24" fill="#3D176E" height="39.7891" id="aws_ec2_instance_type" rx="2.5" ry="2.5" style="stroke:#000D19;stroke-width:0.5;" width="238" x="182" y="206.58"/><ellipse cx="197" cy="226.4745" fill="#ADD1B2" rx="11" ry="11" style="stroke:#181818;stroke-width:1.0;"/><path d="M199.9688,232.1152 Q199.3906,232.412 198.75,232.5527 Q198.1094,232.7089 197.4063,232.7089 Q194.9063,232.7089 193.5781,231.0683 Q192.2656,229.412 192.2656,226.287 Q192.2656,223.162 193.5781,221.5058 Q194.9063,219.8495 197.4063,219.8495 Q198.1094,219.8495 198.75,220.0058 Q199.4063,220.162 199.9688,220.4589 L199.9688,223.1777 Q199.3438,222.5995 198.75,222.3339 Q198.1563,222.0527 197.5313,222.0527 Q196.1875,222.0527 195.5,223.1308 Q194.8125,224.1933 194.8125,226.287 Q194.8125,228.3808 195.5,229.4589 Q196.1875,230.5214 197.5313,230.5214 Q198.1563,230.5214 198.75,230.2558 Q199.3438,229.9745 199.9688,229.3964 L199.9688,232.1152 Z " fill="#000000"/><text fill="#D9B8FF" font-family="Helvetica" font-size="17" lengthAdjust="spacing" textLength="196" x="216" y="232.3598">aws_ec2_instance_type</text></g><!--class aws_ec2_reserved_instances--><g id="elem_aws_ec2_reserved_instances"><rect codeLine="26" fill="#3D176E" height="39.7891" id="aws_ec2_reserved_instances" rx="2.5" ry="2.5" style="stroke:#000D19;stroke-width:0.5;" width="281" x="234.5" y="306.37"/><ellipse cx="249.5" cy="326.2645" fill="#ADD1B2" rx="11" ry="11" style="stroke:#181818;stroke-width:1.0;"/><path d="M252.4688,331.9052 Q251.8906,332.202 251.25,332.3427 Q250.6094,332.4989 249.9063,332.4989 Q247.4063,332.4989 246.0781,330.8583 Q244.7656,329.202 244.7656,326.077 Q244.7656,322.952 246.0781,321.2958 Q247.4063,319.6395 249.9063,319.6395 Q250.6094,319.6395 251.25,319.7958 Q251.9063,319.952 252.4688,320.2489 L252.4688,322.9677 Q251.8438,322.3895 251.25,322.1239 Q250.6563,321.8427 250.0313,321.8427 Q248.6875,321.8427 248,322.9208 Q247.3125,323.9833 247.3125,326.077 Q247.3125,328.1708 248,329.2489 Q248.6875,330.3114 250.0313,330.3114 Q250.6563,330.3114 251.25,330.0458 Q251.8438,329.7645 252.4688,329.1864 L252.4688,331.9052 Z " fill="#000000"/><text fill="#D9B8FF" font-family="Helvetica" font-size="17" lengthAdjust="spacing" textLength="239" x="268.5" y="332.1498">aws_ec2_reserved_instances</text></g><!--class aws_region--><g id="elem_aws_region"><rect codeLine="28" fill="#3D176E" height="39.7891" id="aws_region" rx="2.5" ry="2.5" style="stroke:#000D19;stroke-width:0.5;" width="137" x="105.5" y="7"/><ellipse cx="120.5" cy="26.8945" fill="#ADD1B2" rx="11" ry="11" style="stroke:#181818;stroke-width:1.0;"/><path d="M123.4688,32.5352 Q122.8906,32.832 122.25,32.9727 Q121.6094,33.1289 120.9063,33.1289 Q118.4063,33.1289 117.0781,31.4883 Q115.7656,29.832 115.7656,26.707 Q115.7656,23.582 117.0781,21.9258 Q118.4063,20.2695 120.9063,20.2695 Q121.6094,20.2695 122.25,20.4258 Q122.9063,20.582 123.4688,20.8789 L123.4688,23.5977 Q122.8438,23.0195 122.25,22.7539 Q121.6563,22.4727 121.0313,22.4727 Q119.6875,22.4727 119,23.5508 Q118.3125,24.6133 118.3125,26.707 Q118.3125,28.8008 119,29.8789 Q119.6875,30.9414 121.0313,30.9414 Q121.6563,30.9414 122.25,30.6758 Q122.8438,30.3945 123.4688,29.8164 L123.4688,32.5352 Z " fill="#000000"/><text fill="#D9B8FF" font-family="Helvetica" font-size="17" lengthAdjust="spacing" textLength="95" x="139.5" y="32.7798">aws_region</text></g><!--class aws_service_quota--><g id="elem_aws_service_quota"><rect codeLine="30" fill="#3D176E" height="39.7891" id="aws_service_quota" rx="2.5" ry="2.5" style="stroke:#000D19;stroke-width:0.5;" width="199" x="227.5" y="106.79"/><ellipse cx="242.5" cy="126.6845" fill="#ADD1B2" rx="11" ry="11" style="stroke:#181818;stroke-width:1.0;"/><path d="M245.4688,132.3252 Q244.8906,132.622 244.25,132.7627 Q243.6094,132.9189 242.9063,132.9189 Q240.4063,132.9189 239.0781,131.2783 Q237.7656,129.622 237.7656,126.497 Q237.7656,123.372 239.0781,121.7158 Q240.4063,120.0595 242.9063,120.0595 Q243.6094,120.0595 244.25,120.2158 Q244.9063,120.372 245.4688,120.6689 L245.4688,123.3877 Q244.8438,122.8095 244.25,122.5439 Q243.6563,122.2627 243.0313,122.2627 Q241.6875,122.2627 241,123.3408 Q240.3125,124.4033 240.3125,126.497 Q240.3125,128.5908 241,129.6689 Q241.6875,130.7314 243.0313,130.7314 Q243.6563,130.7314 244.25,130.4658 Q244.8438,130.1845 245.4688,129.6064 L245.4688,132.3252 Z " fill="#000000"/><text fill="#D9B8FF" font-family="Helvetica" font-size="17" lengthAdjust="spacing" textLength="157" x="261.5" y="132.5698">aws_service_quota</text></g><!--link aws_ec2_instance_type to aws_ec2_instance--><g id="link_aws_ec2_instance_type_aws_ec2_instance"><path codeLine="32" d="M261.88,246.8 C228.8,263.14 181.42,286.54 147.02,303.53 " fill="none" id="aws_ec2_instance_type-to-aws_ec2_instance" style="stroke:#1A83AF;stroke-width:2.0;"/><polygon fill="#1A83AF" points="143.04,305.99,152.8809,305.5931,147.5235,303.7768,149.3397,298.4195,143.04,305.99" style="stroke:#1A83AF;stroke-width:2.0;"/></g><!--link aws_ec2_instance_type to aws_ec2_reserved_instances--><g id="link_aws_ec2_instance_type_aws_ec2_reserved_instances"><path codeLine="33" d="M315.62,246.8 C327.48,262.47 344.25,284.63 356.95,301.41 " fill="none" id="aws_ec2_instance_type-to-aws_ec2_reserved_instances" style="stroke:#1A83AF;stroke-width:2.0;"/><polygon fill="#1A83AF" points="360.41,304.99,358.1716,295.3989,357.394,301.002,351.7909,300.2245,360.41,304.99" style="stroke:#1A83AF;stroke-width:2.0;"/></g><!--link aws_region to aws_ec2_instance--><g id="link_aws_region_aws_ec2_instance"><path codeLine="34" d="M169.45,46.95 C157.08,98.76 122.84,242.17 108.96,300.3 " fill="none" id="aws_region-to-aws_ec2_instance" style="stroke:#1A83AF;stroke-width:2.0;"/><polygon fill="#1A83AF" points="107.6,304.99,113.5717,297.1581,108.7555,300.1254,105.7882,295.3092,107.6,304.99" style="stroke:#1A83AF;stroke-width:2.0;"/></g><!--link aws_region to aws_ec2_instance_type--><g id="link_aws_region_aws_ec2_instance_type"><path codeLine="35" d="M176.44,46.95 C180.31,71.62 189.61,115.15 210,146.58 C224.58,169.06 247.37,188.8 266.49,202.92 " fill="none" id="aws_region-to-aws_ec2_instance_type" style="stroke:#1A83AF;stroke-width:2.0;"/><polygon fill="#1A83AF" points="270.26,206.38,265.3179,197.8609,266.2108,203.4468,260.6248,204.3396,270.26,206.38" style="stroke:#1A83AF;stroke-width:2.0;"/></g><!--link aws_region to aws_service_quota--><g id="link_aws_region_aws_service_quota"><path codeLine="36" d="M204.23,47.22 C229.48,63.36 265.5,86.38 292,103.32 " fill="none" id="aws_region-to-aws_service_quota" style="stroke:#1A83AF;stroke-width:2.0;"/><polygon fill="#1A83AF" points="295.83,106.41,290.3899,98.1999,291.6135,103.7228,286.0905,104.9464,295.83,106.41" style="stroke:#1A83AF;stroke-width:2.0;"/></g><!--link aws_service_quota to aws_ec2_instance_type--><g id="link_aws_service_quota_aws_ec2_instance_type"><path codeLine="37" d="M321.86,147.01 C317.77,162.41 312.01,184.08 307.57,200.75 " fill="none" id="aws_service_quota-to-aws_ec2_instance_type" style="stroke:#1A83AF;stroke-width:2.0;"/><polygon fill="#1A83AF" points="306.13,205.2,312.3111,197.5323,307.4165,200.3684,304.5804,195.4738,306.13,205.2" style="stroke:#1A83AF;stroke-width:2.0;"/></g><!--SRC=[bP11Jm8n48Nl-okQS2PX8GfSJ5OIeXTYn9inPDXEeM6tnUa0GUD_bmKbfGLMh_E-UU_DpBL4WUMIjwB4Seha4hVGPWa4fSY8x6PW2qkYeHIeJZSKXzPmBJ224iK35cjadKD8lCnrlZ3ed6XxqZtaYndPbP47UoOmRYUXOOyQ5E1SnanwkcBqoiZ-jATKI8QcZOvCkxSOOPOaqW_IQhLasW-HsgYhTn-9iVv0aVfF6rd6g6OKiQUkjgm8hsHqwAz-iUCJIAdDJDnui-T39p989_Fn7AJTLBI2mlanZf7GydQ9W-WgxFUawfw57o_1UVKv0HitmRmzqSOnc1p5P_9rGPfKTcTqGeUqHda4NG0HphGrmR3QqJlJzvLbs6ldyvglZJJhTRBXM_CkglIVdRXcufMhZ_aBk8-_If-SdSIFgBV_1W00]--></g></svg>

<svg xmlns="http://www.w3.org/2000/svg" width="522" height="352" preserveAspectRatio="none" style="width:522px;height:352px"><rect width="192" height="39.789" x="7" y="306.37" fill="#3D176E" rx="2.5" ry="2.5" style="stroke:#000d19;stroke-width:.5"/><circle cx="22" cy="326.264" r="11" fill="#ADD1B2" style="stroke:#181818;stroke-width:1"/><path d="M24.969 331.905q-.578.297-1.219.438-.64.156-1.344.156-2.5 0-3.828-1.64-1.312-1.657-1.312-4.782t1.312-4.781q1.328-1.656 3.828-1.656.703 0 1.344.156.656.156 1.219.453v2.719q-.625-.579-1.219-.844-.594-.281-1.219-.281-1.343 0-2.031 1.078-.688 1.062-.688 3.156 0 2.094.688 3.172.688 1.062 2.031 1.062.625 0 1.219-.265.594-.281 1.219-.86v2.72Z"/><text x="41" y="332.15" fill="#D9B8FF" font-family="Helvetica" font-size="17" textLength="150">aws_ec2_instance</text><rect width="238" height="39.789" x="182" y="206.58" fill="#3D176E" rx="2.5" ry="2.5" style="stroke:#000d19;stroke-width:.5"/><circle cx="197" cy="226.475" r="11" fill="#ADD1B2" style="stroke:#181818;stroke-width:1"/><path d="M199.969 232.115q-.578.297-1.219.438-.64.156-1.344.156-2.5 0-3.828-1.64-1.312-1.657-1.312-4.782t1.312-4.781q1.328-1.656 3.828-1.656.703 0 1.344.156.656.156 1.219.453v2.719q-.625-.578-1.219-.844-.594-.281-1.219-.281-1.344 0-2.031 1.078-.688 1.062-.688 3.156 0 2.094.688 3.172.688 1.062 2.031 1.062.625 0 1.219-.265.594-.281 1.219-.86v2.72Z"/><text x="216" y="232.36" fill="#D9B8FF" font-family="Helvetica" font-size="17" textLength="196">aws_ec2_instance_type</text><rect width="281" height="39.789" x="234.5" y="306.37" fill="#3D176E" rx="2.5" ry="2.5" style="stroke:#000d19;stroke-width:.5"/><circle cx="249.5" cy="326.264" r="11" fill="#ADD1B2" style="stroke:#181818;stroke-width:1"/><path d="M252.469 331.905q-.578.297-1.219.438-.64.156-1.344.156-2.5 0-3.828-1.64-1.312-1.657-1.312-4.782t1.312-4.781q1.328-1.656 3.828-1.656.703 0 1.344.156.656.156 1.219.453v2.719q-.625-.579-1.219-.844-.594-.281-1.219-.281-1.344 0-2.031 1.078-.688 1.062-.688 3.156 0 2.094.688 3.172.688 1.062 2.031 1.062.625 0 1.219-.265.594-.281 1.219-.86v2.72Z"/><text x="268.5" y="332.15" fill="#D9B8FF" font-family="Helvetica" font-size="17" textLength="239">aws_ec2_reserved_instances</text><rect width="137" height="39.789" x="105.5" y="7" fill="#3D176E" rx="2.5" ry="2.5" style="stroke:#000d19;stroke-width:.5"/><circle cx="120.5" cy="26.895" r="11" fill="#ADD1B2" style="stroke:#181818;stroke-width:1"/><path d="M123.469 32.535q-.578.297-1.219.438-.64.156-1.344.156-2.5 0-3.828-1.64-1.312-1.657-1.312-4.782t1.312-4.781q1.328-1.656 3.828-1.656.703 0 1.344.156.656.156 1.219.453v2.719q-.625-.578-1.219-.844-.594-.281-1.219-.281-1.344 0-2.031 1.078-.688 1.062-.688 3.156 0 2.094.688 3.172.688 1.062 2.031 1.062.625 0 1.219-.265.594-.281 1.219-.86v2.72Z"/><text x="139.5" y="32.78" fill="#D9B8FF" font-family="Helvetica" font-size="17" textLength="95">aws_region</text><rect width="199" height="39.789" x="227.5" y="106.79" fill="#3D176E" rx="2.5" ry="2.5" style="stroke:#000d19;stroke-width:.5"/><circle cx="242.5" cy="126.684" r="11" fill="#ADD1B2" style="stroke:#181818;stroke-width:1"/><path d="M245.469 132.325q-.578.297-1.219.438-.64.156-1.344.156-2.5 0-3.828-1.64-1.312-1.657-1.312-4.782t1.312-4.781q1.328-1.656 3.828-1.656.703 0 1.344.156.656.156 1.219.453v2.719q-.625-.579-1.219-.844-.594-.281-1.219-.281-1.344 0-2.031 1.078-.688 1.062-.688 3.156 0 2.094.688 3.172.688 1.062 2.031 1.062.625 0 1.219-.265.594-.281 1.219-.86v2.72Z"/><text x="261.5" y="132.57" fill="#D9B8FF" font-family="Helvetica" font-size="17" textLength="157">aws_service_quota</text><path fill="none" d="M261.88 246.8c-33.08 16.34-80.46 39.74-114.86 56.73" style="stroke:#1a83af;stroke-width:2"/><path fill="#1A83AF" d="m143.04 305.99 9.84-.397-5.356-1.816 1.816-5.357-6.3 7.57z" style="stroke:#1a83af;stroke-width:2"/><path fill="none" d="m315.62 246.8 41.33 54.61" style="stroke:#1a83af;stroke-width:2"/><path fill="#1A83AF" d="m360.41 304.99-2.238-9.591-.778 5.603-5.603-.778 8.619 4.766z" style="stroke:#1a83af;stroke-width:2"/><path fill="none" d="M169.45 46.95 108.96 300.3" style="stroke:#1a83af;stroke-width:2"/><path fill="#1A83AF" d="m107.6 304.99 5.972-7.832-4.817 2.967-2.967-4.816 1.812 9.681z" style="stroke:#1a83af;stroke-width:2"/><path fill="none" d="M176.44 46.95c3.87 24.67 13.17 68.2 33.56 99.63 14.58 22.48 37.37 42.22 56.49 56.34" style="stroke:#1a83af;stroke-width:2"/><path fill="#1A83AF" d="m270.26 206.38-4.942-8.52.893 5.587-5.586.893 9.635 2.04z" style="stroke:#1a83af;stroke-width:2"/><path fill="none" d="M204.23 47.22c25.25 16.14 61.27 39.16 87.77 56.1" style="stroke:#1a83af;stroke-width:2"/><path fill="#1A83AF" d="m295.83 106.41-5.44-8.21 1.224 5.523-5.523 1.223 9.739 1.464z" style="stroke:#1a83af;stroke-width:2"/><path fill="none" d="M321.86 147.01c-4.09 15.4-9.85 37.07-14.29 53.74" style="stroke:#1a83af;stroke-width:2"/><path fill="#1A83AF" d="m306.13 205.2 6.181-7.668-4.894 2.836-2.837-4.894 1.55 9.726z" style="stroke:#1a83af;stroke-width:2"/></svg>
